frontend/public/svg/interface/paste.svg

<svg width="135" height="160" viewBox="0 0 135 160" fill="none" xmlns="http://www.w3.org/2000/svg">
<g clip-path="url(#clip0)">
<path d="M36.7678 8.82237C37.1754 4.3916 39.786 2.2556 43.8847 1.95714C52.1127 1.35898 60.3468 0.784232 68.5884 0.453153C74.7766 0.206999 80.9834 0.443891 87.1778 0.297429C92.3163 0.174352 96.376 1.55771 97.837 6.77616C102.607 6.77616 107.133 6.71462 111.656 6.78847C124.28 6.99831 132.165 13.8248 133.068 26.3578C133.951 38.5947 134.313 50.8943 134.265 63.1641C134.2 79.9555 133.606 96.7475 133.086 113.534C132.896 119.666 132.393 125.795 131.807 131.904C130.645 143.994 118.861 159.014 101.098 159.02C76.4286 159.029 51.7603 159.451 27.0882 159.61C24.6085 159.563 22.1406 159.259 19.7244 158.705C7.76486 156.256 1.05622 148.078 1.05684 135.883C1.05684 122.16 1.16845 108.433 1.24662 94.7081C1.35084 76.4816 1.20385 58.2482 1.73302 40.0335C1.90859 33.9922 3.41609 27.8826 5.06751 22.0131C7.55331 13.1823 12.4896 9.50299 21.9155 8.88022C26.7314 8.56022 31.5896 8.82237 36.7678 8.82237ZM37.6289 14.3098C31.2012 15.0482 25.3666 15.6119 19.5668 16.4248C16.7131 16.8248 14.4016 18.6039 13.7409 21.3516C12.0708 28.2944 9.5081 35.335 9.55649 42.3214C9.7792 74.4835 10.7173 106.638 9.10926 138.794C8.79908 144.993 12.5014 150.002 18.6313 151.501C22.7227 152.552 26.9242 153.123 31.1497 153.203C42.8176 153.264 54.49 152.988 66.1572 152.697C78.7451 152.383 91.3386 152.07 103.909 151.379C107.28 151.194 111.21 150.461 113.772 148.53C119.503 144.214 124.034 138.706 124.526 130.985C124.852 125.882 125.48 120.791 125.617 115.686C126.003 101.248 126.349 86.8066 126.44 72.3629C126.532 57.8315 126.519 43.2919 126.101 28.7688C125.927 22.7153 123.757 16.7688 117.041 15.2131C111.542 13.9411 105.683 14.2063 99.7893 13.7762C99.8761 15.0414 99.9059 15.6451 99.9605 16.2464C100.457 21.7658 98.6577 24.4753 93.3176 26.063C91.5669 26.6823 89.7486 27.0921 87.8999 27.2839C73.7765 27.9701 59.6502 28.6255 45.5181 29.0876C41.7004 29.2107 39.534 26.5983 39.0663 22.5835C38.7629 19.978 38.1773 17.4033 37.627 14.3098H37.6289ZM70.2113 5.99589C70.1982 5.83466 70.1846 5.67343 70.1716 5.5122C62.3674 6.13333 54.5629 6.75247 46.7582 7.36945C44.3531 7.55407 43.5658 8.73437 44.1161 11.0618C44.6533 13.0363 44.9891 15.0594 45.1186 17.1005C45.1887 19.5621 46.3686 20.2728 48.61 20.2593C56.0415 20.2138 63.4796 20.4359 70.903 20.1904C77.2804 19.9799 83.6367 19.2058 90.0104 18.8088C92.6439 18.6451 93.0502 17.3436 92.5446 15.1393C92.0787 13.2512 91.7431 11.3337 91.5408 9.40022C91.3188 6.85745 90.1326 5.89252 87.5376 5.95405C81.7657 6.09128 75.9869 5.99589 70.2113 5.99589Z" fill="black"/>
</g>
<defs>
<clipPath id="clip0">
<rect width="134" height="160" fill="white" transform="translate(0.777344)"/>
</clipPath>
</defs>
</svg>

<svg xmlns="http://www.w3.org/2000/svg" width="135" height="160" fill="none" viewBox="0 0 135 160"><g clip-path="url(#a)"><path fill="#000" d="M36.768 8.822c.407-4.43 3.018-6.566 7.117-6.865C52.113 1.36 60.347.784 68.588.453c6.189-.246 12.395-.01 18.59-.156 5.138-.123 9.198 1.26 10.659 6.48 4.77 0 9.296-.062 13.819.011 12.624.21 20.509 7.037 21.412 19.57.883 12.237 1.245 24.536 1.197 36.806-.065 16.792-.659 33.584-1.179 50.37-.19 6.132-.693 12.261-1.279 18.37-1.162 12.09-12.946 27.11-30.709 27.116-24.67.009-49.338.431-74.01.59a36 36 0 0 1-7.364-.905c-11.96-2.449-18.668-10.627-18.667-22.822 0-13.723.111-27.45.19-41.175.104-18.226-.043-36.46.486-54.674.176-6.042 1.683-12.151 3.335-18.02C7.553 13.181 12.49 9.502 21.916 8.88c4.815-.32 9.674-.058 14.852-.058m.86 5.488c-6.427.738-12.261 1.302-18.061 2.115-2.854.4-5.165 2.179-5.826 4.927-1.67 6.942-4.233 13.983-4.185 20.97.223 32.162 1.161 64.316-.447 96.472-.31 6.199 3.392 11.208 9.522 12.707a54.5 54.5 0 0 0 12.519 1.702c11.668.061 23.34-.215 35.007-.506 12.588-.314 25.182-.627 37.752-1.318 3.371-.185 7.301-.918 9.863-2.849 5.731-4.316 10.262-9.824 10.754-17.545.326-5.103.954-10.194 1.091-15.299.386-14.438.732-28.88.823-43.323.092-14.532.079-29.071-.339-43.594-.174-6.054-2.344-12-9.06-13.556-5.499-1.272-11.358-1.007-17.252-1.437.087 1.265.117 1.87.171 2.47.497 5.52-1.302 8.23-6.642 9.817-1.751.62-3.57 1.03-5.418 1.22-14.124.687-28.25 1.342-42.382 1.805-3.818.123-5.984-2.49-6.452-6.504-.303-2.606-.889-5.18-1.439-8.274zm32.583-8.314-.04-.484q-11.706.931-23.413 1.857c-2.405.185-3.192 1.365-2.642 3.693A30.3 30.3 0 0 1 45.12 17.1c.07 2.461 1.25 3.172 3.491 3.158 7.432-.045 14.87.177 22.293-.069 6.377-.21 12.734-.984 19.107-1.381 2.634-.164 3.04-1.465 2.535-3.67A42 42 0 0 1 91.54 9.4c-.222-2.543-1.408-3.507-4.003-3.446-5.772.137-11.551.042-17.327.042"/></g><defs><clipPath id="a"><path fill="#fff" d="M.777 0h134v160h-134z"/></clipPath></defs></svg>
